X:2925
L:1/8
M:6/8
K:Bb
 (f2 f) fdB | (g2 g) gec | (f2 f) fdB | cdB AGF | (f2 f) fdB | g2 g gec | fdB ecA | B3 B,3 :: 
 D2 B E2 B | F2 B G2 B | Fed cdB | ABG F3 | D2 B E2 B | F2 B G2 e | dcB FBA | B3 B,3 :|

